X:62
T:Polonäs, sexdregasamlingen del 1 nr 62
B:Sexdregasamlingen del 1 nr 62
Z:Per Oldberg 2010-07-19
M:3/4
L:1/16
O:Sexdrega, Västergöland
R:Polonäs
K:A
E2A2G2A2B2d2|c2Bc A8|E2A2G2A2B2c2|d2cB c8|
Bcde f2f2 d2d2|d2cd e2ef e4|agfe d2cB c2BA|B2AG A8:|
B2e2^d2e2f2g2|agfe ^dcBAB4|B2e2^d2e2f2a2|g2fg e8|
agfe dcBA c2A2|fgfe d2cB c2BA|E2A2G2A2B2d2|c2Bc [A8E8]:|

